layout/bottom-panel/widgets/battery/icons/battery-charging.svg

<svg enable-background="new 0 0 24.00 24.00" height="240" viewBox="0 0 24 24" width="240" xmlns="http://www.w3.org/2000/svg"><path d="m16.6688 3.99875h-1.6701v-1.99625h-5.9987v1.99625h-1.67c-.73249 0-1.3275.60125-1.3275 1.33375v15.3263c0 .7424.59501 1.3437 1.3275 1.3437h9.3288c.7424 0 1.3437-.6013 1.3437-1.3338v-15.3362c0-.7325-.6013-1.33375-1.3337-1.33375zm-5.6675 16.00125v-5.4975h-2.00255l3.99875-7.5v5.4975h2.0025" fill="#f4f4f7" stroke-linejoin="round" stroke-width=".2"/></svg>

﻿<?xml version="1.0" encoding="utf-8"?>
<!DOCTYPE svg PUBLIC "-//W3C//DTD SVG 1.1//EN" "http://www.w3.org/Graphics/SVG/1.1/DTD/svg11.dtd">
<svg xmlns="http://www.w3.org/2000/svg" xmlns:xlink="http://www.w3.org/1999/xlink" version="1.1" baseProfile="full"
	width="240" height="240" viewBox="0 0 24.00 24.00" enable-background="new 0 0 24.00 24.00" xml:space="preserve">
	<path fill="#f4f4f7" fill-opacity="1" stroke-width="0.2" stroke-linejoin="round"
		d="M 16.6688,3.99875L 14.9987,3.99875L 14.9987,2.0025L 9,2.0025L 9,3.99875L 7.33,3.99875C 6.59751,3.99875 6.0025,4.6 6.0025,5.3325L 6.0025,20.6588C 6.0025,21.4012 6.59751,22.0025 7.33,22.0025L 16.6588,22.0025C 17.4012,22.0025 18.0025,21.4012 18.0025,20.6687L 18.0025,5.3325C 18.0025,4.6 17.4012,3.99875 16.6688,3.99875 Z M 11.0013,20L 11.0013,14.5025L 8.99875,14.5025L 12.9975,7.0025L 12.9975,12.5L 15,12.5" />
</svg>
